X:1
T:Vita, 86.86.88
T:Vita, 86.86.88
T:Joseph Eaton Faning (1850-1927)
T:Public Domain Courtesy of the Cyber Hymnal™
C:Joseph Eaton Faning (1850-1927)
Z:Public Domain
Z:Courtesy of the Cyber Hymnal™
%%score ( 1 2 ) ( 3 4 )
L:1/8
Q:1/4=110
M:4/4
K:Eb
V:1 treble 
V:2 treble 
V:3 bass 
V:4 bass 
V:1
 [EG]2 | [DF]2 E2 [=EB]2 [FA]2 | G3 z F E2 [_DE]2 | [Cc]2 [=EB]2 [FA]2 C2 | G6 [EG]2 | %5
 B2 =A2 G2 [CF]2 | [B,D]3 [CE] [DF]2 [C^F]2 | [B,G]2 [EG]2 G2 ^F2 | [DG]6 [_DG]2 | %9
 c3 c F2 [_CF]2 x2 | B2 B2 E2 [=A,E]2 x4 | [A,A]2 [B,G]2 [CF]2 E2 | [EG]2 [DF]2 !fermata!E2 |] %13
V:2
 x2 | x2 =E2 x4 | E2 (_D2 E2) x3 | x6 C2 | =B,2 C2 D2 x2 | D6 x2 | x8 | x4 D4 | x8 | _C6 x4 | %10
 B,6 x6 | x6 E2 | x4 E2 |] %13
V:3
 [E,B,]2 | [F,A,]2 [G,B,]2 [G,,_D]2 [A,,C]2 | B,2 A,2 [C,G,]2 [B,,G,]2 x | %3
 [A,,A,]2 [C,G,]2 F,2 [E,F,A,]2 | [F,G,]6 [C,G,C]2 | [F,,F,C]4 [G,,B,]2 [=A,,F,-]2 | %6
 F,2 F,2 B,2 [D,=A,]2 | [E,G,]2 [C,C]2 [D,=A,]4 | [G,,B,]6 [E,B,]2 | A,2 F,2 z2 A,,2 x2 | %10
 G,2 E,2 z2 x6 | [F,,D,]2 [G,,E,]2 [A,,F,]2 [=A,,C]2 | B,2 A,2 !fermata![E,G,]2 |] %13
V:4
 x2 | x8 | B,,4 x5 | x4 F,2 x2 | D,2 C,2 =B,,2 x2 | x8 | B,,6 x2 | x8 | x8 | A,,6 D,4 | %10
 G,,6 (C,4 _G,,2) | x8 | B,,4 x2 |] %13

